theme/dist/icons/flag-cz.svg

<svg enable-background="new 0 0 512 512" viewBox="0 0 512 512" xmlns="http://www.w3.org/2000/svg"><path d="m13.7 97.251c-8.374 7.035-13.7 17.578-13.7 29.37v258.759c0 11.791 5.326 22.335 13.7 29.369l242.3-158.749z" fill="#41479b"/><path d="m13.7 414.749c6.665 5.599 15.258 8.975 24.644 8.975h435.31c21.177 0 38.345-17.167 38.345-38.345v-129.379h-255.999z" fill="#ff4b55"/><path d="m473.655 88.276h-435.31c-9.386 0-17.98 3.378-24.644 8.975l242.299 158.749h256v-129.379c0-21.178-17.167-38.345-38.345-38.345z" fill="#f5f5f5"/></svg>

<?xml version="1.0" encoding="iso-8859-1"?>
<!-- Generator: Adobe Illustrator 19.0.0, SVG Export Plug-In . SVG Version: 6.00 Build 0)  -->
<svg version="1.1" id="Layer_1" xmlns="http://www.w3.org/2000/svg" xmlns:xlink="http://www.w3.org/1999/xlink" x="0px" y="0px"
	 viewBox="0 0 512 512" style="enable-background:new 0 0 512 512;" xml:space="preserve">
<path style="fill:#41479B;" d="M13.7,97.251C5.326,104.286,0,114.829,0,126.621V385.38c0,11.791,5.326,22.335,13.7,29.369L256,256
	L13.7,97.251z"/>
<path style="fill:#FF4B55;" d="M13.7,414.749c6.665,5.599,15.258,8.975,24.644,8.975h435.31c21.177,0,38.345-17.167,38.345-38.345
	V256H256L13.7,414.749z"/>
<path style="fill:#F5F5F5;" d="M473.655,88.276H38.345c-9.386,0-17.98,3.378-24.644,8.975L256,256h256V126.621
	C512,105.443,494.833,88.276,473.655,88.276z"/>
<g>
</g>
<g>
</g>
<g>
</g>
<g>
</g>
<g>
</g>
<g>
</g>
<g>
</g>
<g>
</g>
<g>
</g>
<g>
</g>
<g>
</g>
<g>
</g>
<g>
</g>
<g>
</g>
<g>
</g>
</svg>
